X: 1721
T: Senden Bilirim Yok Bana...
C: Tanburî Ali Efendi
O: Turkey
F: http://compmusic.upf.edu/node/140
N: huseyni--sarki--yuruksemai--senden_bilirim--tanburi_ali_efendi
N: makam= huseyni
N: form= sarki
N: usul= yuruksemai = 6/8
M: 6/8
L: 1/16
K: C _2/4B ^3/4f  
Q: 1/4=96
%%MIDI tuningsystem comma53
c4d4 e4d4 e6z2  | g6e2 e2d2d2c2 {e}d4z4  | \
w:  ARANAĞME  |   | 
e6d2 d2c2c2B2 c6B2  | 
w:   | 
e2d2c2B2 B2A2B2A2 A6z2  | c4d4 e4d4 e6z2  | \
w:   |  ARANAĞME  | 
g6e2 e2d2d2c2 {e}d4z4  | 
w:   | 
e6d2 d2c2c2B2 c6B2  | e2d2c2B2 B2A2B2A2 A6z2  | \
w:   |   | 
d4d4 e4e4 e8  | 
w:  Sen den  bi li rim   | 
e2=f2e2d2 d2e2d2c2 c8  | d6e2 d2c2c2B2 B2A2{c}B2A2  | \
w:  yok  *  *  *  ba *  na  *  bir   |  fa *  i *  de  *  ey   | 
A4B4 c4d4 e8  | 
w:  gül    | 
d8 a2g2g2f2 f2e2{g}f2e2  | e6=f2 e2d2c2B2 A8  | \
w:  fa i *  de  *  ey   |  gül   SAZ  | 
d4d4 e4e4 e8  | 
w:  Sen den  bi li rim   | 
e2=f2e2d2 d2e2d2c2 c8  | d6e2 d2c2c2B2 B2A2{c}B2A2  | \
w:  yok  *  *  *  ba *  na  *  bir   |  fa *  i *  de  *  ey   | 
A4B4 c4d4 e8  | 
w:  gül    | 
d8 a2g2g2f2 f2e2{g}f2e2  | e8 e3dc2d2 e8  | \
w:  fa i *  de  *  ey   |  gül   SAZ  | 
d4e4 e4e4 g2e4d2  | 
w:  Gül  ya ğı nı  el  | 
d2e2{=f}e2d2 d2e2e2d2 e3dc4  | g6=f2 f2e2e2d2 e2d2{e}d2c2  | 
w:  ler  *  *  *  *  sü *  rü *  nür   |  çat *  la *  sa  *  bül  | 
d6e2 d2c2c2B2 B2A2A4  | g2ag=fed2 d2c2c2B2 B2A2{c}B2A2  | 
w:  bül    |  çat *  *  *  *  *  la *  sa  *  bül  | 
A8 e3dc2d2 e8  | d4e4 e4e4 g2e4d2  | \
w:  bül   SAZ  |  Gül  ya ğı nı  el  | 
d2e2{=f}e2d2 d2e2e2d2 e3dc4  | 
w:  ler  *  *  *  *  sü *  rü *  nür   | 
g6=f2 f2e2e2d2 e2d2{e}d2c2  | d6e2 d2c2c2B2 B2A2A4  | \
w:  çat *  la *  sa  *  bül  |  bül    | 
g2ag=fed2 d2c2c2B2 B2A2{c}B2A2  | 
w:  çat *  *  *  *  *  la *  sa  *  bül  | 
A8 a3g^f2g2 a8  | g4g4 a4a4 a2_1/4b2a2g2  | \
w:  bül   SAZ  |  Et sem  de  a bes  | 
g6f2 g2f2f2e2 e6d2  | 
w:  tir  *  si *  tem_ *  i   | 
e4^f4 g4a4 a4{c'}_1/4b2a2  | a8 a2g2^f2e2 d8  | \
w:  hâ *  re  te ham  |  mül    | 
_1/4b6a2 a2g2g2^f2 f2e2{g}f2e2  | 
w:  hâ *  re  *  te *  ham  | 
e8 e3dc2d2 e8  | d4e4 e4e4 g2e4d2  | \
w:  mül    |  Gül  ya ğı nı  el  | 
d2e2{=f}e2d2 d2e2e2d2 e3dc4  | 
w:  ler  *  *  *  *  sü *  rü *  nür   | 
g6=f2 f2e2e2d2 e2d2{e}d2c2  | d6e2 d2c2c2B2 B2A2A4  | \
w:  çat *  la *  sa  *  bül  |  bül    | 
g2ag=fed2 d2c2c2B2 B2A2{c}B2A2  | 
w:  çat *  *  *  *  *  la *  sa  *  bül  | 
A8 e3dc2d2 e8  | d4e4 e4e4 g2e4d2  | \
w:  bül   SAZ  |  Gül  ya ğı nı  el  | 
d2e2{=f}e2d2 d2e2e2d2 e3dc4  | 
w:  ler  *  *  *  *  sü *  rü *  nür   | 
g6=f2 f2e2e2d2 e2d2{e}d2c2  | d6e2 d2c2c2B2 B2A2A4  | \
w:  çat *  la *  sa  *  bül  |  bül    | 
g2ag=fed2 d2c2c2B2 B2A2{c}B2A2  | 
w:  çat *  *  *  *  *  la *  sa  *  bül  | 
A6=f2 e2d2c2B2 A6z2  | |


